Sources/FrostedUI/Resources/Icons.xcassets/infoCircle32.imageset/info-circle-32.svg

<svg width="32" height="32" viewBox="0 0 32 32" fill="none" xmlns="http://www.w3.org/2000/svg" data-fui-icon="true">
  <path
    d="M16 1C24.2843 1 31 7.71573 31 16C31 24.2843 24.2843 31 16 31C7.71573 31 1 24.2843 1 16C1 7.71573 7.71573 1 16 1ZM16 2.5C8.54416 2.5 2.5 8.54416 2.5 16C2.5 23.4558 8.54416 29.5 16 29.5C23.4558 29.5 29.5 23.4558 29.5 16C29.5 8.54416 23.4558 2.5 16 2.5ZM18.25 13C18.6642 13 19 13.3358 19 13.75V23.5H20.25C20.6642 23.5 21 23.8358 21 24.25C20.9999 24.6642 20.6642 25 20.25 25H12.75C12.3358 25 12.0001 24.6642 12 24.25C12 23.8358 12.3358 23.5 12.75 23.5H14V14.5H12.75C12.3358 14.5 12 14.1642 12 13.75C12 13.3358 12.3358 13 12.75 13H18.25ZM15.5 23.5H17.5V14.5H15.5V23.5ZM16.5 7.00391C17.8807 7.00391 18.9999 8.12325 19 9.50391C19 10.8846 17.8807 12.0039 16.5 12.0039C15.1193 12.0039 14 10.8846 14 9.50391C14.0001 8.12325 15.1193 7.00391 16.5 7.00391ZM16.5 8.50391C15.9478 8.50391 15.5001 8.95168 15.5 9.50391C15.5 10.0562 15.9477 10.5039 16.5 10.5039C17.0523 10.5039 17.5 10.0562 17.5 9.50391C17.4999 8.95168 17.0522 8.50391 16.5 8.50391Z"
    fill="currentColor"
  />
</svg>

<svg xmlns="http://www.w3.org/2000/svg" width="32" height="32" fill="none" data-fui-icon="true" viewBox="0 0 32 32"><path fill="currentColor" d="M16 1c8.284 0 15 6.716 15 15s-6.716 15-15 15S1 24.284 1 16 7.716 1 16 1m0 1.5C8.544 2.5 2.5 8.544 2.5 16S8.544 29.5 16 29.5 29.5 23.456 29.5 16 23.456 2.5 16 2.5M18.25 13a.75.75 0 0 1 .75.75v9.75h1.25a.75.75 0 0 1 0 1.5h-7.5a.75.75 0 0 1 0-1.5H14v-9h-1.25a.75.75 0 0 1 0-1.5zM15.5 23.5h2v-9h-2zm1-16.496a2.5 2.5 0 1 1 0 5 2.5 2.5 0 0 1 0-5m0 1.5a1 1 0 1 0 0 2 1 1 0 0 0 0-2"/></svg>
